!!!!SEGMENT: pl-kk--kk-i-7--033-005_pekiel-bartlomiej--missa-agnus-dei.krn
!!!cenid: 16xx:827
!!!COM: Pękiel, Bartłomiej
!!!COM-rismid: pe30105642
!!!CDT: <1633-~1670
!!!CNT: Polish
!!!OPR: Missa
!!!OTL: Agnus Dei
!!!OMV: 005
!!!PDT: 1664
!!!AGN: Sacred; Mass
!!!SMS-siglum: PL-Kk
!!!SMS-shelfmark: Kk.I.7
!!!SMS-shelfwork: 033-005 M
!!!SMS-variant:
!!!SMS-altvar:
!!!NIFC-rismid: 300258110
!!!URL-scan: http://repozytorium.nifc.pl/skany/pl-kk-nut--i-7
!!!ONB-nifc: UWAGA: C (skan 0020-0024, s.34-42), A (0106-0110, s.33-41), T(0181-0185, s.27-35), B(0273–277, s.35-43). Części Mszy: 1. Kyrie, 2. Et in terra, 3. Patrem, 4. Sanctus, 5. Agnus Dei
!!!AIN: 1 alto 1 bass 2 tenor
!!!key:
**kern	**text	**kern	**text	**kern	**text	**kern	**text
*part4	*part4	*part3	*part3	*part2	*part2	*part1	*part1
*staff4	*staff4	*staff3	*staff3	*staff2	*staff2	*staff1	*staff1
*Ibass	*	*Itenor	*	*Itenor	*	*Ialto	*
*I"[Bassus]	*	*I"[Tenor II]	*	*I"[Tenor I]	*	*I"[Altus]	*
*I'[B]	*	*I'[T II]	*	*I'[T I]	*	*I'[A]	*
*clefF4	*	*clefC4	*	*clefC4	*	*clefC3	*
*k[]	*	*k[]	*	*k[]	*	*k[]	*
*G:	*	*G:	*	*G:	*	*G:	*
*M2/1	*	*M2/1	*	*M2/1	*	*M2/1	*
*met(C|)	*	*met(C|)	*	*met(C|)	*	*met(C|)	*
=1-	=1-	=1-	=1-	=1-	=1-	=1-	=1-
*	*	*2\right	*	*	*	*	*
!	!	!LO:TX:t=P:problem=all\right&colon; global	!	!	!	!LO:TX:t=P:problem=kreska pseudotaktowa	!
!	!	!	!	!LO:TX:t=P:problem=kreska pseudotaktowa	!	!	!
2rBB	.	2.d\	A-	0r	.	0r	.
*2\right	*	*	*	*	*	*	*
!LO:TX:t=P:problem=kreska pseudotaktowa	!	!	!	!	!	!	!
!LO:TX:t=P:problem=all\right&colon; global	!	!	!	!	!	!	!
2.Gni\w	A-	.	.	.	.	.	.
!	!	!LO:TX:t=P:problem=kreska pseudotaktowa	!	!	!	!	!
.	.	4d\	-gnus	.	.	.	.
.	.	2e\	De-	.	.	.	.
4G\	-gnus	.	.	.	.	.	.
2A\	De-	4c\	-i	.	.	.	.
!	!	!LO:TX:t=P:problem=kreska pseudotaktowa	!	!	!	!	!
.	.	4A/	qui	.	.	.	.
=2-	=2-	=2-	=2-	=2-	=2-	=2-	=2-
*	*	*	*	*2\right	*	*	*
!LO:TX:t=P:problem=♯ above	!	!	!	!	!	!	!
4F#X\	-i	2d\	tol-	2.d\	A-	2r	.
4D/	qui	.	.	.	.	.	.
*	*	*	*	*	*	*2\right	*
!	!	!	!	!	!	!LO:TX:t=P:problem=kreska pseudotaktowa	!
!LO:TX:t=P:problem=kreska pseudotaktowa	!	!	!	!	!	!LO:TX:t=P:problem=all\right&colon; global	!
2G\	.	4B\	-lis	.	.	2.g\	A-
!	!	!LO:TX:t=P:problem=kreska pseudotaktowa	!	!LO:TX:t=P:problem=kreska pseudotaktowa	!	!	!
.	.	4G/	pec-	4d\	-gnus	.	.
4E\	tol-	2c\	.	2e\	De-	.	.
4C/	-lis	.	.	.	.	4g\	-gnus
!	!	!	!	!	!	!LO:TX:t=P:problem=kreska pseudotaktowa	!
2F#\	pec-	4A/	-ca-	4c\	-i	2a\	De-
!	!	!LO:TX:t=P:problem=kreska pseudotaktowa	!	!LO:TX:t=P:problem=kreska pseudotaktowa	!	!	!
.	.	4A/	-ta	4A/	qui	.	.
=3-	=3-	=3-	=3-	=3-	=3-	=3-	=3-
!	!	!	!	!	!	!LO:TX:t=P:problem=♯ above	!
4D/	-ca-	4.B\	pec-	2d\	tol-	4f#X\	-i
4D/	-ta	.	.	.	.	4d\	qui
.	.	8A/	-ca-	.	.	.	.
4.E\	pec-	8G/L	.	4B\	.	4g\	tol-
.	.	8A/	.	.	.	.	.
!	!	!	!	!LO:TX:t=P:problem=kreska pseudotaktowa	!	!LO:TX:t=P:problem=kreska pseudotaktowa	!
.	.	8B/	.	4G/	-lis	4g\	-lis
!LO:TX:t=P:problem=kreska pseudotaktowa	!	!LO:TX:t=P:problem=kreska pseudotaktowa	!	!	!	!	!
8D/	.	8G/J	.	.	.	.	.
4C/	.	4A\	.	4c\	pec-	4d\	pec-
4BB/	.	4B\	-ta	4d\	-ca-	4.g\	-ca-
!	!	!LO:TX:t=P:problem=kreska pseudotaktowa	!	!	!	!	!
2AA/	-ca-	2c\	mun-	4e\	-ta	.	.
.	.	.	.	.	.	8g\	-ta
*	*	*	*	*	*	*custos:g	*
!	!	!	!	!	!	!LO:TX:t=P:problem=♯ above	!
.	.	.	.	8d\L	mun-	4f#X\	mun-
!	!	!	!	!LO:TX:t=P:problem=kreska pseudotaktowa	!	!	!
.	.	.	.	8c\J	.	.	.
!	!	!	!	!	!	!LO:LB:g=original	!
=4-	=4-	=4-	=4-	=4-	=4-	=4-	=4-
!LO:TX:t=P:global:problem=rozdzielacz słów / znak oddechu	!	!	!	!	!	!	!
4GG,/	-ta	2B\	-di	2d\	-di	4g\	-di
4GG/	mun-	.	.	.	.	4d\	.
!	!	!LO:TX:t=P:problem=kreska pseudotaktowa	!	!LO:TX:t=P:problem=kreska pseudotaktowa	!	!	!
8GG/L	-di	2B\	pec-	2rF	.	8g\L	pec-
8AA/	.	.	.	.	.	8f\	.
8BB/	pec-	.	.	.	.	8d\	-ca-
!LO:TX:t=P:problem=kreska pseudotaktowa	!	!	!	!	!	!LO:TX:t=P:problem=kreska pseudotaktowa	!
8C/J	.	.	.	.	.	8e\J	.
!	!	!	!	!LO:TX:t=P:problem=kreska pseudotaktowa	!	!	!
8D\L	-ca-	8A/L	-ca-	1rF	.	2f\	-ta
8E\	.	8G/	.	.	.	.	.
8F\	.	8A/	.	.	.	.	.
8G\J	.	8B/J	.	.	.	.	.
8A\	.	4.c\	.	.	.	4e\	.
8E\	-ta	.	.	.	.	.	.
2A\	mun-	.	.	.	.	4e\	pec-
!	!	!LO:TX:t=P:problem=kreska pseudotaktowa	!	!	!	!	!
.	.	8c\	-ta	.	.	.	.
=5-	=5-	=5-	=5-	=5-	=5-	=5-	=5-
.	.	2B\	mun-	4E/	pec-	1e\	-ca-
!LO:TX:t=P:problem=♯ above	!	!	!	!	!	!	!
4G#X\	.	.	.	4.e\	-ca-	.	.
!LO:TX:t=P:problem=kreska pseudotaktowa	!	!	!	!	!	!	!
2A\	-di	4c\	-di	.	.	.	.
.	.	.	.	8d\L	.	.	.
!	!	!LO:TX:t=P:problem=kreska pseudotaktowa	!	!	!	!	!
.	.	4A/	.	8c\	.	.	.
!	!	!	!	!LO:TX:t=P:problem=kreska pseudotaktowa	!	!	!
.	.	.	.	8B\J	.	.	.
4AA/	pec-	8e\L	pec-	2c\	-ta	2e\	-ta
.	.	8d\	.	.	.	.	.
4.A\	-ca-	8c\	.	.	.	.	.
.	.	8B\J	.	.	.	.	.
.	.	4.A/	-ca-	4c\	.	4e\	pec-
!LO:TX:a:t=P:problem=♮ above	!	!	!	!	!	!	!
!LO:N:acc=-	!	!	!	!	!	!	!
8GnX\L	.	.	.	.	.	.	.
8F\	.	.	.	4c\	pec-	4.a\	-ca-
8E\J	.	16B\LL	.	.	.	.	.
!	!	!LO:TX:t=P:problem=kreska pseudotaktowa	!	!	!	!	!
.	.	16c\JJ	.	.	.	.	.
=6-	=6-	=6-	=6-	=6-	=6-	=6-	=6-
*	*	*custos:d	*	*	*	*	*
2D/	.	2d\	.	8f\L	-ca-	.	.
.	.	.	.	8e\	.	8g\L	.
.	.	.	.	8d\	.	8f\	.
.	.	.	.	8c\J	.	8e\J	.
!	!	!LO:LB:g=original	!	!	!	!	!
!	!	!LO:TX:t=P:problem=kreska pseudotaktowa	!	!	!	!	!
4.G\	.	2d\	-ta	4B\	.	8d\L	.
.	.	.	.	.	.	16e\L	.
.	.	.	.	.	.	16f\JJ	.
.	.	.	.	8B\	-ta	4.g\	.
*custos:E	*	*	*	*	*	*	*
!	!	!	!	!LO:TX:t=P:problem=kreska pseudotaktowa	!	!	!
8F\	.	.	.	8A/	pec-	.	.
!LO:LB:g=original	!	!	!	!	!	!	!
8E\L	.	4r	.	8G/L	-ca-	.	.
8D\J	.	.	.	16A/L	.	8f\L	.
.	.	.	.	16B/JJ	.	.	.
8C/L	.	4G/	pec-	2c\	-ta	8e\	.
8BB/J	.	.	.	.	.	8d\J	.
2.C/	.	8C/L	-ca-	.	.	2.e\	-ta
.	.	8D/	.	.	.	.	.
.	.	8E/	.	8G/	.	.	.
*	*	*	*	*custos:E	*	*	*
!	!	!LO:TX:t=P:problem=kreska pseudotaktowa	!	!	!	!	!
*	*	*	*	*	*ij	*	*
.	.	8F/J	.	8G/	pec-	.	.
!	!	!	!	!LO:PB:g=original	!	!	!
=7-	=7-	=7-	=7-	=7-	=7-	=7-	=7-
.	.	8G/	.	4E/	-ca	.	.
.	.	8D/	-ta	.	.	.	.
4BB/	-ta	2G/	mun-	4B\	ta	4d\	.
*	*	*	*	*	*Xij	*	*
!LO:TX:t=P:problem=kreska pseudotaktowa	!	!	!	!	!	!	!
2AA/	mun-	.	.	4E/	mun-	2c/	mun-
!	!	!LO:TX:t=P:problem=kreska pseudotaktowa	!	!	!	!	!
!	!	!LO:TX:t=P:problem=♯ below	!	!LO:TX:t=P:problem=kreska pseudotaktowa	!	!	!
.	.	4F#X/	.	4A/	.	.	.
2GG/	-di	2G/	-di	4D/	-di	1B/	-di
.	.	.	.	2d\	Mi-	.	.
2.G\	Mi-	2.B\	Mi-	.	.	.	.
!	!	!	!	!LO:TX:t=P:problem=kreska pseudotaktowa	!	!	!
.	.	.	.	4d\	-ſe-	.	.
=8-	=8-	=8-	=8-	=8-	=8-	=8-	=8-
.	.	.	.	2e\	-re-	1rA	.
4G\	-ſe-	4B\	-ſe-	.	.	.	.
!	!	!LO:TX:t=P:problem=kreska pseudotaktowa	!	!LO:TX:t=P:problem=kreska pseudotaktowa	!	!	!
2A\	-re-	2c\	-re-	2c\	-re	.	.
!LO:TX:t=P:problem=♯ above	!	!	!	!	!	!	!
2F#X\	.	2A/	-re	4.d\	no-	2r	.
.	.	.	.	8c\L	.	.	.
!LO:TX:t=P:problem=kreska pseudotaktowa	!	!	!	!	!	!	!
2G\	-re	4.B\	no-	8B\	.	2.g\	Mi-
.	.	.	.	8A\J	.	.	.
!	!	!	!	!LO:TX:t=P:problem=kreska pseudotaktowa	!	!	!
.	.	.	.	4.G/	.	.	.
.	.	16c\LL	.	.	.	.	.
!	!	!LO:TX:t=P:problem=kreska pseudotaktowa	!	!	!	!	!
.	.	16d\JJ	.	.	.	.	.
=9-	=9-	=9-	=9-	=9-	=9-	=9-	=9-
2E\	.	4.e\	.	.	.	.	.
.	.	.	.	16A/LL	.	.	.
.	.	.	.	16B/JJ	.	.	.
.	.	.	.	4.c\	.	4g\	-ſe-
.	.	8d\	.	.	.	.	.
4.F\	.	8c\L	.	.	.	2a\	-re-
.	.	16d\L	.	8B\	.	.	.
.	.	16e\JJ	.	.	.	.	.
!	!	!LO:TX:t=P:problem=kreska pseudotaktowa	!	!	!	!	!
.	.	4.f\	.	8A\L	.	.	.
!LO:TX:t=P:problem=kreska pseudotaktowa	!	!	!	!	!	!	!
8E\	.	.	.	16B\L	.	.	.
!	!	!	!	!LO:TX:t=P:problem=kreska pseudotaktowa	!	!	!
.	.	.	.	16c\JJ	.	.	.
8D\L	.	.	.	4d\	.	2f\	-re
8E\	.	8e\L	.	.	.	.	.
8F\	.	8d\	.	4.A/	.	.	.
8D\J	.	16c\L	.	.	.	.	.
.	.	16B\JJ	.	.	.	.	.
!	!	!LO:TX:t=P:problem=kreska pseudotaktowa	!	!	!	!	!
4A\	.	2.c\	.	.	.	4e\	.
.	.	.	.	8B\	.	.	.
8AA/L	.	.	.	8c\L	.	8c\L	no-
!LO:TX:t=P:problem=kreska pseudotaktowa	!	!	!	!	!	!	!
8BB/J	.	.	.	16B\L	.	8d\J	.
.	.	.	.	16A\JJ	.	.	.
=10-	=10-	=10-	=10-	=10-	=10-	=10-	=10-
!	!	!LO:N:xstem:cue	!	!	!	!	!
8C/L	.	.	.	2G/	.	8e\L	.
8D/	.	.	.	.	.	8f\J	.
8E/	.	4B\	.	.	.	2g\	.
8D/J	.	.	.	.	.	.	.
4C/	no-	4e\	.	2A/	.	.	.
4D/	.	4d\	-bis.	.	.	4f\	-bis.
!	!	!	!	!	!	!LO:TX:b:t=2dum	!
!LO:N:vis=0	!	!LO:TX:t=P:problem=fermata below	!	!	!	!LO:TX:t=P:problem=fermata below	!
1GG/;	-bis	1d\;<	.	1G/;;	-bis	1g\;<	.
!LO:LB:g=original	!	!LO:LB:g=original	!	!LO:LB:g=original	!	!LO:PB:g=original	!
=11||-	=11||-	=11||-	=11||-	=11||-	=11||-	=11||-	=11||-
*M3/1	*	*M3/1	*	*M3/1	*	*M3/1	*
!	!	!	!	!LO:TX:t=P:problem=oznaczenie menzuralne O| 3/1	!	!	!
!LO:TX:t=P:problem=oznaczenie menzuralne O| 3/1	!	!LO:TX:t=P:problem=oznaczenie menzuralne O| 3/1	!	!LO:TX:a:t=6.	!	!LO:TX:t=P:problem=oznaczenie menzuralne O| 3/1	!
!	!	!	!	!LO:TX:t=P:problem=kreska pseudotaktowa	!	!LO:TX:t=P:problem=kreska pseudotaktowa	!
00.r	.	0d\	A-	00.r	.	00.r	.
!	!	!LO:TX:t=P:problem=kreska pseudotaktowa	!	!	!	!	!
.	.	1d\	-gnus	.	.	.	.
=12-	=12-	=12-	=12-	=12-	=12-	=12-	=12-
!LO:TX:t=P:problem=kreska pseudotaktowa	!	!	!	!	!	!	!
.	.	1e\	De-	.	.	.	.
.	.	1d\	-i	.	.	.	.
!	!	!LO:TX:t=P:problem=kreska pseudotaktowa	!	!	!	!	!
.	.	1c\	qui	.	.	.	.
=13-	=13-	=13-	=13-	=13-	=13-	=13-	=13-
!	!	!	!	!LO:TX:t=P:problem=kreska pseudotaktowa	!	!LO:TX:t=P:problem=kreska pseudotaktowa	!
0G\	A-	1d\	tol-	00.r	.	00.r	.
.	.	1c\	-lis	.	.	.	.
!	!	!LO:TX:t=P:problem=kreska pseudotaktowa	!	!	!	!	!
1G\	-gnus	1B\	pec-	.	.	.	.
=14-	=14-	=14-	=14-	=14-	=14-	=14-	=14-
1A\	De-	1c\	-ca-	.	.	.	.
1G\	-i	1B\	-ta	.	.	.	.
!LO:TX:t=P:problem=kreska pseudotaktowa	!	!LO:TX:t=P:problem=kreska pseudotaktowa	!	!	!	!	!
1F\	qui	1A\	pec-	.	.	.	.
=15-	=15-	=15-	=15-	=15-	=15-	=15-	=15-
!	!	!	!	!LO:TX:t=P:problem=kreska pseudotaktowa	!	!LO:TX:t=P:problem=kreska pseudotaktowa	!
1G\	tol-	0B\	-ca-	00.r	.	0g\	A-
1F\	-lis	.	.	.	.	.	.
!	!	!LO:TX:t=P:problem=kreska pseudotaktowa	!	!	!	!	!
1E\	pec-	1c\	-ta	.	.	1g\	-gnus
=16-	=16-	=16-	=16-	=16-	=16-	=16-	=16-
*	*	*col	*	*	*	*	*
1F\	-ca-	1A\	mun-	.	.	1a\	De-
!	!	!LO:TX:t=P:problem=kreska pseudotaktowa	!	!	!	!	!
1E\	-ta	0B\	.	.	.	1g\	-i
!	!	!	!	!	!	!LO:TX:t=P:problem=kreska pseudotaktowa	!
1D\	pec-	.	.	.	.	1f\	qui
!LO:TX:t=P:problem=kreska pseudotaktowa	!	!	!	!	!	!	!
*	*	*Xcol	*	*	*	*	*
=17-	=17-	=17-	=17-	=17-	=17-	=17-	=17-
*lig	*	*	*	*	*	*	*
!	!	!LO:TX:t=P:problem=kreska pseudotaktowa	!	!	!	!	!
1C/	-ca-	0.c\	-di	0G/	A-	1e\	tol-
1D\	.	.	.	.	.	1f\	-lis
*Xlig	*	*	*	*	*	*	*
!	!	!	!	!LO:TX:t=P:problem=kreska pseudotaktowa	!	!	!
1E\	.	.	.	1G/	-gnus	1g\	pec-
=18-	=18-	=18-	=18-	=18-	=18-	=18-	=18-
*lig	*	*col	*	*	*	*col	*
1F\	.	1A\	pec-	1A\	De-	1c\	-ca-
!	!	!LO:TX:t=P:problem=kreska pseudotaktowa	!	!	!	!LO:TX:t=P:problem=kreska pseudotaktowa	!
1E\	.	0B\	-ca-	1G/	-i	0d\	.
!	!	!	!	!LO:TX:t=P:problem=kreska pseudotaktowa	!	!	!
1D\	.	.	.	1F/	qui	.	.
!LO:TX:t=P:problem=kreska pseudotaktowa	!	!	!	!	!	!	!
*Xlig	*	*Xcol	*	*	*	*Xcol	*
=19-	=19-	=19-	=19-	=19-	=19-	=19-	=19-
*col	*	*	*	*	*	*lig	*
1C/	.	1c\	-ta	1E/	tol-	1e\	.
0BB/	.	1r	.	1F#X/	-lis	1d\	.
!	!	!	!	!LO:TX:t=P:problem=kreska pseudotaktowa	!	!LO:TX:t=P:problem=kreska pseudotaktowa	!
.	.	1r	.	1G#X/	pec-	1e\	.
!	!	!LO:TX:t=P:problem=kreska pseudotaktowa	!	!	!	!	!
*Xcol	*	*	*	*	*	*Xlig	*
=20-	=20-	=20-	=20-	=20-	=20-	=20-	=20-
*	*	*	*	*	*	*lig	*
0AA/	.	1%3r	.	1A\	-ca-	1c\	.
.	.	.	.	1B\	-ta	1d\	.
*	*	*	*	*	*	*Xlig	*
!LO:TX:t=P:problem=kreska pseudotaktowa	!	!	!	!	!	!LO:TX:t=P:problem=kreska pseudotaktowa	!
1E\	-ta	.	.	0c\	mun-	1e\	-ta
=21-	=21-	=21-	=21-	=21-	=21-	=21-	=21-
*	*	*	*	*	*	*lig	*
0.G\	mun-	0d\	A-	.	.	1d\	mun-
.	.	.	.	2B\	.	1.g\	.
.	.	.	.	2A/	.	.	.
!	!	!	!	!LO:TX:t=P:problem=kreska pseudotaktowa	!	!	!
.	.	1d\	-gnus	1B\	.	.	.
!	!	!LO:TX:t=P:problem=kreska pseudotaktowa	!	!	!	!	!
*	*	*	*	*	*	*Xlig	*
.	.	.	.	.	.	2f\	.
=22-	=22-	=22-	=22-	=22-	=22-	=22-	=22-
!LO:TX:t=P:problem=kreska pseudotaktowa	!	!	!	!	!	!	!
*	*	*	*	*lig	*	*	*
0.C/	-di	1e\	De-	1c\	-di	1e\	-di
!	!	!	!	!	!	!LO:TX:t=P:problem=kreska pseudotaktowa	!
.	.	1d\	-i	1B\	.	0f#X\	pec-
*	*	*	*	*Xlig	*	*	*
*	*	*custos:B	*	*	*	*	*
!	!	!LO:TX:t=P:problem=kreska pseudotaktowa	!	!	!	!	!
!	!	!	!	!LO:TX:t=P:problem=kreska pseudotaktowa	!	!	!
.	.	1c\	qui	1A\	pec-	.	.
!	!	!LO:LB:g=original	!	!	!	!	!
=23-	=23-	=23-	=23-	=23-	=23-	=23-	=23-
*	*	*	*	*lig	*	*col	*
00.r	.	1B\	tol-	1G/	-ca-	0g\	-ca-
.	.	1c\	-lis	1A\	.	.	.
*	*	*	*	*Xlig	*	*	*
!	!	!LO:TX:t=P:problem=kreska pseudotaktowa	!	!LO:TX:t=P:problem=kreska pseudotaktowa	!	!LO:N:acc=-	!
.	.	1d\	pec-	1B-X\	-ta	0fn\	-ta
=24-	=24-	=24-	=24-	=24-	=24-	=24-	=24-
!LO:TX:t=P:problem=kreska pseudotaktowa	!	!	!	!	!	!	!
*	*	*	*	*lig	*	*	*
.	.	0d\	-ca-	1F/	mun-	.	.
!	!	!	!	!	!	!LO:TX:t=P:problem=kreska pseudotaktowa	!
.	.	.	.	1G/	.	0e\	mun-
*	*	*	*	*Xlig	*	*Xcol	*
!	!	!LO:TX:t=P:problem=kreska pseudotaktowa	!	!LO:TX:t=P:problem=kreska pseudotaktowa	!	!	!
.	.	1c#X\	-ta	1A\	.	.	.
=25-	=25-	=25-	=25-	=25-	=25-	=25-	=25-
0D\	A-	(1.d\	mun-	1A\	-di	1f#X\,	-di
.	.	.	.	1r	.	1f#\	A-
.	.	2c\)	.	.	.	.	.
*custos:E	*	*	*	*	*	*custos:g	*
!LO:TX:t=P:problem=kreska pseudotaktowa	!	!	!	!	!	!LO:TX:t=P:problem=kreska pseudotaktowa	!
!	!	!	!	!LO:TX:t=P:problem=kreska pseudotaktowa	!	!	!
1D\	-gn(us)	(2B\	-di	1r	.	1f#\	-gnus
!	!	!LO:TX:t=P:problem=kreska pseudotaktowa	!	!	!	!	!
.	.	2A/)	.	.	.	.	.
!LO:LB:g=original	!	!	!	!LO:LB:g=original	!	!LO:LB:g=original	!
=26-	=26-	=26-	=26-	=26-	=26-	=26-	=26-
*	*	*col	*	*	*	*	*
*	*	*	*	*custos:d	*	*	*
1E\	De-	1G/	pec-	0.r	.	1g\	De-
!	!	!LO:TX:t=P:problem=kreska pseudotaktowa	!	!	!	!	!
1D\	-i	0A\	-ca-	.	.	1f#X\	-i
!	!	!	!	!	!	!LO:TX:t=P:problem=kreska pseudotaktowa	!
1C/	qui	.	.	.	.	1e\	qui
!LO:TX:t=P:problem=kreska pseudotaktowa	!	!	!	!	!	!	!
*	*	*Xcol	*	*	*	*	*
!	!	!	!	!LO:LB:g=original	!	!	!
=27-	=27-	=27-	=27-	=27-	=27-	=27-	=27-
1D\	tol-	1A\	-ta	0d\	A-	1f#X\	tol-
*	*	*lig	*	*	*	*	*
1C/	-lis	1A\	mun-	.	.	1e\	-lis
!	!	!LO:TX:t=P:problem=kreska pseudotaktowa	!	!LO:TX:t=P:problem=kreska pseudotaktowa	!	!LO:TX:t=P:problem=kreska pseudotaktowa	!
1BB/	pec-	1B\	.	1d\	-gnus	1d\	pec-
*	*	*Xlig	*	*	*	*	*
=28-	=28-	=28-	=28-	=28-	=28-	=28-	=28-
!	!	!LO:TX:t=P:problem=kreska pseudotaktowa	!	!	!	!	!
*	*	*	*	*	*	*lig	*
0.C/	-ca-	0.G/	-di,	1e\	De-	1c\	-ca-
.	.	.	.	1d\	-i	1B/	.
*	*	*	*	*	*	*Xlig	*
!	!	!	!	!LO:TX:t=P:problem=kreska pseudotaktowa	!	!LO:TX:t=P:problem=kreska pseudotaktowa	!
.	.	.	.	1c\	qui	1A/	.
=29-	=29-	=29-	=29-	=29-	=29-	=29-	=29-
0GG/,	-ta	0d\	A-	1B\	tol-	0G/	.
.	.	.	.	1A\	-lis	.	.
!LO:TX:t=P:problem=kreska pseudotaktowa	!	!LO:TX:t=P:problem=kreska pseudotaktowa	!	!LO:TX:t=P:problem=kreska pseudotaktowa	!	!	!
1G\	qui	1d\	-gnus	1B\	pec-	1g\	-ta
=30-	=30-	=30-	=30-	=30-	=30-	=30-	=30-
*	*	*	*	*lig	*	*	*
1c\	tol-	1e\	De-	1c\	-ca-	0g\	mun-
1B\	-lis	1d\	-i	1G/	.	.	.
*	*	*	*	*Xlig	*	*	*
!LO:TX:t=P:problem=kreska pseudotaktowa	!	!LO:TX:t=P:problem=kreska pseudotaktowa	!	!LO:TX:t=P:problem=kreska pseudotaktowa	!	!	!
1A\	pec-	1c\	qui	1A\	-ta	1f#X\	.
=31-	=31-	=31-	=31-	=31-	=31-	=31-	=31-
1G\	-ca-	1B\	tol-	0d\	mun-	0g\	-di
1F\	-ta	1A\	-lis	.	.	.	.
!	!	!	!	!LO:TX:t=P:problem=kreska pseudotaktowa	!	!	!
!LO:TX:t=P:problem=kreska pseudotaktowa	!	!LO:TX:t=P:problem=kreska pseudotaktowa	!	!LO:TX:t=P:problem=♯ above	!	!LO:TX:t=P:problem=kreska pseudotaktowa	!
1E\	pec-	1G/	pec-	1c#X\	.	1g\	pec-
=32-	=32-	=32-	=32-	=32-	=32-	=32-	=32-
*lig	*	*	*	*	*	*	*
!	!	!	!	!LO:TX:t=P:problem=kreska pseudotaktowa	!	!LO:N:acc=-	!
1D\	-ca-	0A\	-ca-	0.d\	-di	0.fn\	-ca-
1C/	.	.	.	.	.	.	.
*Xlig	*	*	*	*	*	*	*
!LO:TX:t=P:problem=kreska pseudotaktowa	!	!	!	!	!	!	!
1BB-X/	-ta	1B-X\	-ta	.	.	.	.
=33-	=33-	=33-	=33-	=33-	=33-	=33-	=33-
*col	*	*	*	*	*	*	*
!	!	!LO:TX:t=P:problem=kreska pseudotaktowa	!	!	!	!	!
*	*	*	*	*	*	*col	*
1FF/	mun-	0.A\	mun-	0d\	Mi-	1f\	-ta
!	!	!	!	!	!	!LO:TX:t=P:problem=kreska pseudotaktowa	!
0AA/	.	.	.	.	.	0e\	mun-
!	!	!	!	!LO:TX:a:t=P:problem=# above	!	!	!
.	.	.	.	1c#X\	-ſe-	.	.
!	!	!	!	!LO:TX:t=P:problem=♯ above	!	!	!
*Xcol	*	*	*	*	*	*Xcol	*
=34-	=34-	=34-	=34-	=34-	=34-	=34-	=34-
1D\,	-di.	1A\	-di	1.d\	-re-	1f#X\,	-di
1.D\	Mi-	1rA	.	.	.	1.f#\	Mi-
.	.	.	.	2c\	.	.	.
!	!	!LO:TX:t=P:problem=kreska pseudotaktowa	!	!	!	!	!
.	.	1d\	Mi-	2B\	.	.	.
!LO:TX:t=P:problem=kreska pseudotaktowa	!	!	!	!LO:TX:t=P:problem=kreska pseudotaktowa	!	!LO:TX:t=P:problem=kreska pseudotaktowa	!
2D/	-ſe-	.	.	2A/	.	2f#\	-ſe-
=35-	=35-	=35-	=35-	=35-	=35-	=35-	=35-
0E\	-re-	1B\	-ſe-	2G/	.	1.g\	-re-
.	.	.	.	2A/	.	.	.
*	*	*	*	*lig	*	*	*
.	.	1.G/	-re-	1B\	.	.	.
!	!	!	!	!	!	!LO:TX:t=P:problem=♯ above	!
.	.	.	.	.	.	2f#X\	.
!LO:TX:t=P:problem=kreska pseudotaktowa	!	!	!	!LO:TX:t=P:problem=kreska pseudotaktowa	!	!	!
1C/	-re	.	.	1c\	.	2e\	.
!	!	!	!	!	!	!LO:TX:t=P:problem=♯ above	!
.	.	2A/	.	.	.	2f#X\	.
*	*	*custos:B	*	*	*	*	*
!	!	!LO:TX:t=P:problem=kreska pseudotaktowa	!	!	!	!	!
*	*	*	*	*Xlig	*	*	*
!	!	!LO:LB:g=original	!	!	!	!	!
=36-	=36-	=36-	=36-	=36-	=36-	=36-	=36-
1BB/	no-	1.B\	.	1d\	-re	2d\	.
.	.	.	.	.	.	4e\	.
.	.	.	.	.	.	4f#X\	.
*	*	*	*	*	*	*col	*
2GG/	.	.	.	1.d\	Mi-	0g\	.
2AA/	.	2A/	.	.	.	.	.
*	*	*col	*	*	*	*	*
2BB/	.	0G/	.	.	.	.	.
*custos:C	*	*	*	*	*	*	*
!LO:TX:t=P:problem=kreska pseudotaktowa	!	!	!	!	!	!	!
!	!	!	!	!LO:TX:t=P:problem=kreska pseudotaktowa	!	!	!
2GG/	.	.	.	2d\	-ſe-	.	.
!LO:PB:g=original	!	!	!	!	!	!	!
=37-	=37-	=37-	=37-	=37-	=37-	=37-	=37-
0C/	.	.	.	0e\	-re-	0g\	-re
*	*	*lig	*	*	*	*Xcol	*
.	.	1A\	-re	.	.	.	.
!	!	!LO:TX:t=P:problem=kreska pseudotaktowa	!	!LO:TX:t=P:problem=kreska pseudotaktowa	!	!	!
1BB/	.	1B\	.	1d\	-re	[1g\	no-
*	*	*Xlig	*	*	*	*	*
!	!	!	!	!	!	!LO:LB:g=original	!
=38-	=38-	=38-	=38-	=38-	=38-	=38-	=38-
!	!	!	!	!LO:TX:t=P:problem=kreska pseudotaktowa	!	!LO:N:vis=1	!
0.AA/	.	1E/	no-	0.c\	no-	1.g\]	.
.	.	0A\	.	.	.	.	.
.	.	.	.	.	.	4f#X\	.
.	.	.	.	.	.	4e\	.
.	.	.	.	.	.	1f#X\	.
!	!	!	!	!	!	!LO:N:vis=4	!
*	*	*Xcol	*	*	*	*	*
=39-	=39-	=39-	=39-	=39-	=39-	=39-	=39-
*M2/1	*	*M2/1	*	*M2/1	*	*M2/1	*
*met(C|)	*	*met(C|)	*	*met(C|)	*	*met(C|)	*
!	!	!	!	!	!	!LO:TX:t=P:problem=fermata below	!
0GG/;	-bis.	0D/;	-bis	0B\;	-bis.	0g\;<	-bis.
!	!	!	!	!LO:LB:g=original	!	!	!
=40||-	=40||-	=40||-	=40||-	=40||-	=40||-	=40||-	=40||-
*M2/1	*	*M2/1	*	*M2/1	*	*M2/1	*
*met(C|)	*	*met(C|)	*	*met(C|)	*	*met(C|)	*
1.GG/	A-	2r	.	1.B\	A-	1.d\	A-
.	.	1G/	A-	.	.	.	.
!	!	!LO:TX:t=P:problem=kreska pseudotaktowa	!	!LO:TX:t=P:problem=kreska pseudotaktowa	!	!LO:TX:t=P:problem=kreska pseudotaktowa	!
2GG/	-gnus	2G/	-gnus	2B\	-gnus	2d\	-gnus
=41-	=41-	=41-	=41-	=41-	=41-	=41-	=41-
1C/	De-	1G/	De-	1c\	De-	1e\	De-
2C/	-i	2G/	-i	2c\	-i	2e\	-i
!LO:TX:t=P:problem=kreska pseudotaktowa	!	!LO:TX:t=P:problem=kreska pseudotaktowa	!	!	!	!LO:TX:t=P:problem=kreska pseudotaktowa	!
2BB/	qui	2G/	qui	4d\	qui	2d\	qui
.	.	.	.	2d\	tol-	.	.
=42-	=42-	=42-	=42-	=42-	=42-	=42-	=42-
1C/	tol-	1G/	tol-	.	.	1e\	tol-
.	.	.	.	8c\L	.	.	.
.	.	.	.	8B\J	.	.	.
!	!	!	!	!LO:TX:t=P:problem=kreska pseudotaktowa	!	!	!
.	.	.	.	2c\	.	.	.
!LO:TX:t=P:problem=kreska pseudotaktowa	!	!	!	!	!	!LO:TX:t=P:problem=kreska pseudotaktowa	!
1GG/	-lis	2G/	-lis	1B\	-lis	1d\	-lis
.	.	1d\	pec-	.	.	.	.
=43-	=43-	=43-	=43-	=43-	=43-	=43-	=43-
!	!	!	!	!LO:TX:t=P:problem=kreska pseudotaktowa	!	!	!
1G\	pec-	.	.	1B\	pec-	0r	.
!	!	!LO:TX:t=P:problem=kreska pseudotaktowa	!	!	!	!	!
.	.	2.e\	.	.	.	.	.
2.A\	-ca-	.	.	4c\	-ca-	.	.
.	.	4d\	-ca-	4d\	.	.	.
!	!	!	!	!LO:TX:t=P:problem=kreska pseudotaktowa	!	!	!
.	.	4c\	.	2.e\	-ta	.	.
!	!	!LO:TX:t=P:problem=kreska pseudotaktowa	!	!	!	!	!
4G\	.	4B\	-ta	.	.	.	.
=44-	=44-	=44-	=44-	=44-	=44-	=44-	=44-
!LO:TX:t=P:problem=kreska pseudotaktowa	!	!	!	!	!	!LO:TX:t=P:problem=kreska pseudotaktowa	!
1F\	.	1A\	mun-	.	.	1r	.
.	.	.	.	8d\L	mun-	.	.
.	.	.	.	8c\J	.	.	.
!	!	!	!	!LO:TX:t=P:problem=kreska pseudotaktowa	!	!	!
.	.	.	.	2d\	.	.	.
2E,\	-ta	2B\	-di	2e\	-di	2g\	pec-
*	*	*custos:G	*	*	*	*	*
!	!	!LO:TX:t=P:problem=kreska pseudotaktowa	!	!	!	!	!
!	!	!	!	!LO:TX:t=P:problem=kreska pseudotaktowa	!	!	!
4C/	pec-	2c\	pec-	2e\	pec-	4e\	-ca-
!LO:TX:t=P:problem=kreska pseudotaktowa	!	!	!	!	!	!LO:TX:t=P:problem=kreska pseudotaktowa	!
4D/	.	.	.	.	.	4f\	.
!	!	!LO:PB:g=original	!	!	!	!	!
=45-	=45-	=45-	=45-	=45-	=45-	=45-	=45-
(4E/	-ca-	2G/	-ca-	2c\	-ca-	4g\	.
4C/)	.	.	.	.	.	8f\L	.
.	.	.	.	.	.	8e\J	.
!	!	!LO:TX:t=P:problem=kreska pseudotaktowa	!	!LO:TX:t=P:problem=kreska pseudotaktowa	!	!	!
4.G\	.	2B\	-ta	2d\	-ta	4d\	.
!	!	!	!	!	!	!LO:TX:t=P:problem=kreska pseudotaktowa	!
.	.	.	.	.	.	4e\	.
!LO:TX:t=P:problem=kreska pseudotaktowa	!	!	!	!	!	!	!
8G\	-ta	.	.	.	.	.	.
0D\	mun-	2A/	mun-	2.d\	mun-	4.f#X\	.
.	.	.	.	.	.	8f#\	-ta
!	!	!	!	!	!	!LO:TX:t=P:problem=kreska pseudotaktowa	!
.	.	4B\	.	.	.	2.g\	mun-
.	.	4c\	.	8c\L	.	.	.
.	.	.	.	8B\J	.	.	.
=46-	=46-	=46-	=46-	=46-	=46-	=46-	=46-
!	!	!	!	!LO:TX:t=P:problem=kreska pseudotaktowa	!	!	!
.	.	2d\	.	1A\	.	.	.
.	.	.	.	.	.	8f\L	.
.	.	.	.	.	.	8e\J	.
!	!	!	!	!	!	!LO:TX:t=P:problem=kreska pseudotaktowa	!
!	!	!LO:TX:t=P:problem=kreska pseudotaktowa	!	!	!	!LO:TX:t=P:problem=♯ above next note	!
.	.	2D/	.	.	.	2f#X\	.
*custos:D	*	*	*	*	*	*	*
1GG/;,	-di	2D/	-di	2B\	-di	4g\	-di
.	.	.	.	.	.	8.d\	Do-
*	*	*	*	*	*	*custos:g	*
!	!	!	!	!	!	!LO:TX:a:t=d	!
.	.	.	.	.	.	16d\	-na
!	!	!	!	!	!	!LO:LB:g=original	!
!	!	!	!	!	!	!LO:TX:t=P:problem=kreska pseudotaktowa	!
.	.	4r	.	4.B\	Do-	2.g\	no-
.	.	8G/	Do-	.	.	.	.
!	!	!LO:TX:t=P:problem=kreska pseudotaktowa	!	!LO:TX:t=P:problem=kreska pseudotaktowa	!	!	!
.	.	8G/	-na	8B\	-na	.	.
!LO:LB:g=original	!	!	!	!	!	!	!
=47-	=47-	=47-	=47-	=47-	=47-	=47-	=47-
!LO:TX:t=P:problem=kreska pseudotaktowa	!	!	!	!	!	!	!
1rD	.	2.c\	Do-	2.e\	no-	.	.
.	.	.	.	.	.	4f\	.
.	.	.	.	.	.	4e\	.
!	!	!LO:TX:t=P:problem=kreska pseudotaktowa	!	!LO:TX:t=P:problem=kreska pseudotaktowa	!	!	!
.	.	4B\	.	4d\	.	8f#X\L	.
.	.	.	.	.	.	8g#X\J	.
2rD	.	4A/	.	4c\	.	8a\	.
.	.	.	.	.	.	8e\	-bis
.	.	4G/	-na	4B\	-bis	2g#\	pa-
*	*	*	*	*custos:B	*	*	*
!	!	!	!	!LO:TX:t=P:problem=kreska pseudotaktowa	!	!	!
4.D/	Do-	4D/	no-	2A/	pa-	.	.
!	!	!	!	!	!	!LO:TX:t=P:problem=kreska pseudotaktowa	!
!	!	!LO:TX:t=P:problem=kreska pseudotaktowa	!	!	!	!LO:TX:t=P:problem=♯ above	!
.	.	4.d\	-bis	.	.	4f#X\	.
!LO:TX:t=P:problem=kreska pseudotaktowa	!	!	!	!	!	!	!
8D/	-na	.	.	.	.	.	.
!	!	!	!	!LO:LB:g=original	!	!	!
=48-	=48-	=48-	=48-	=48-	=48-	=48-	=48-
!	!	!LO:N:xstem:cue	!	!	!	!	!
2.G\	no-	.	.	2B\	-cem	4g\	-cem
.	.	8c\L	.	.	.	.	.
*	*	*	*	*	*	*	*ij
.	.	8B\	.	.	.	2g\	Do-
.	.	8A\J	.	.	.	.	.
!	!	!	!	!LO:TX:t=P:problem=kreska pseudotaktowa	!	!	!
.	.	4B\	pa-	2r	.	.	.
!LO:TX:t=P:problem=kreska pseudotaktowa	!	!	!	!	!	!LO:TX:t=P:problem=kreska pseudotaktowa	!
4F\	.	8A\L	.	.	.	4a\	-na
!	!	!LO:TX:t=P:problem=kreska pseudotaktowa	!	!	!	!	!
.	.	8B\J	.	.	.	.	.
!	!	!LO:TX:t=P:problem=♯ above	!	!LO:TX:t=P:problem=kreska pseudotaktowa	!	!	!
4E\	.	4c#X\	.	1rF	.	4g\	no-
4D\	-bis	2d\	.	.	.	4f\	-bis
2A\	pa-	.	.	.	.	2e\	pa-
!	!	!LO:TX:t=P:problem=kreska pseudotaktowa	!	!	!	!	!
.	.	4c#\	.	.	.	.	.
=49-	=49-	=49-	=49-	=49-	=49-	=49-	=49-
2D/	-cem	4d\	-cem	2rF	.	2f#X\	-cem
.	.	8.D/	Do-	.	.	.	.
.	.	16D/	-na	.	.	.	.
!LO:TX:t=P:problem=kreska pseudotaktowa	!	!	!	!	!	!	!
*	*	*	*	*	*ij	*	*Xij
2r	.	4.d\	no-	4D/	Do-	4.f#\	Do-
!	!	!	!	!LO:TX:t=P:problem=kreska pseudotaktowa	!	!	!
.	.	.	.	4D/	-na	.	.
!	!	!LO:TX:t=P:problem=kreska pseudotaktowa	!	!	!	!LO:TX:t=P:problem=kreska pseudotaktowa	!
.	.	8c\	.	.	.	8e\	-na
1r	.	4B\	-bis	4d\	no-	4f#X\	no-
.	.	4A/	.	4c\	.	4a\	-bis
!	!	!LO:TX:t=P:problem=kreska pseudotaktowa	!	!	!	!	!
.	.	2.E/	pa-	4B\	-bis	8g#X\L	.
.	.	.	.	.	.	8e\J	.
!	!	!	!	!LO:TX:t=P:problem=kreska pseudotaktowa	!	!	!
.	.	.	.	4c\	.	2a\	pa-
=50-	=50-	=50-	=50-	=50-	=50-	=50-	=50-
!	!	!LO:N:xstem:cue	!	!	!	!	!
*	*ij	*	*	*	*	*	*
4.E\	Do-	.	.	2B\	pa-	.	.
.	.	4.e\	.	.	.	4g#X\	.
8E\	-na	.	.	.	.	.	.
!LO:TX:t=P:problem=kreska pseudotaktowa	!	!	!	!LO:TX:t=P:problem=kreska pseudotaktowa	!	!LO:TX:t=P:problem=kreska pseudotaktowa	!
2.A\	no-	.	.	2A/	-cem	2a\	-cem
.	.	8d\L	.	.	.	.	.
.	.	8c\	.	.	.	.	.
!	!	!LO:TX:t=P:problem=kreska pseudotaktowa	!	!	!	!	!
.	.	8B\J	.	.	.	.	.
*	*	*	*	*	*Xij	*	*
.	.	4c\	.	4.e\	Do-	1re	.
4G\	.	4B\	.	.	.	.	.
.	.	.	.	8e\	-na	.	.
4F\	.	8A\L	.	4f\	no-	.	.
.	.	8B\J	.	.	.	.	.
!LO:TX:t=P:problem=kreska pseudotaktowa	!	!	!	!LO:TX:t=P:problem=kreska pseudotaktowa	!	!	!
4E\	bis	2c\	.	4c\	-bis	.	.
=51-	=51-	=51-	=51-	=51-	=51-	=51-	=51-
2G\	pa-	.	.	2d\	pa-	8.d\	Do-
.	.	.	.	.	.	16d\	-na
.	.	4B\	.	.	.	4.g\	no-
*	*	*custos:A	*	*	*	*	*
!	!	!LO:TX:t=P:problem=kreska pseudotaktowa	!	!	!	!	!
!	!	!	!	!LO:TX:t=P:problem=kreska pseudotaktowa	!	!LO:TX:t=P:problem=kreska pseudotaktowa	!
2C/	-cem	2c\	-cem	2e\	-cem	.	.
.	.	.	.	.	.	8f\L	.
.	.	.	.	.	.	8e\	.
.	.	.	.	.	.	16f\L	.
!	!	!	!	!	!	!LO:TX:t=P:problem=kreska pseudotaktowa	!
.	.	.	.	.	.	16g\JJ	.
!	!	!LO:LB:g=original	!	!	!	!	!
2.F\	Do-	0r	.	4r	.	2.a\	.
*	*	*	*	*	*ij	*	*
.	.	.	.	8.c\	Do-	.	.
.	.	.	.	16c\	-na	.	.
!	!	!	!	!LO:TX:t=P:problem=kreska pseudotaktowa	!	!	!
.	.	.	.	2f\	no-	.	.
!LO:TX:t=P:problem=kreska pseudotaktowa	!	!	!	!	!	!	!
4E\	-na	.	.	.	.	4g\	.
=52-	=52-	=52-	=52-	=52-	=52-	=52-	=52-
4D/	no-	.	.	2e\	-bis	(8f\L	.
.	.	.	.	.	.	8g\J)	.
!LO:TX:t=P:problem=♯ below	!	!	!	!	!	!	!
4C#X/	.	.	.	.	.	(8a\L	-bis
.	.	.	.	.	.	8g\J)	.
!	!	!	!	!	!	!LO:TX:t=P:problem=kreska pseudotaktowa	!
8D\L	.	.	.	2.d\	pa-	(2f\	pa-
8E\	.	.	.	.	.	.	.
8F\	bis	.	.	.	.	.	.
8G\J	.	.	.	.	.	.	.
2A\	pa-	2r	.	.	.	2e\)	.
.	.	.	.	4c\	.	.	.
*	*	*	*	*	*	*custos:f#	*
!	!	!	!	!	!	!LO:TX:t=P:problem=♯ above	!
!LO:TX:t=P:problem=kreska pseudotaktowa	!	!	!	!LO:TX:t=P:problem=kreska pseudotaktowa	!	!	!
2D/	-cem	4.A/	Do-	2d\	-cem	2f#X\	-cem
!	!	!LO:TX:t=P:problem=kreska pseudotaktowa	!	!	!	!	!
.	.	8A/	-na	.	.	.	.
*	*	*	*	*	*Xij	*	*
!	!	!	!	!	!	!LO:LB:g=original	!
=53-	=53-	=53-	=53-	=53-	=53-	=53-	=53-
1r	.	4.d\	no-	4D/	Do-	2.f#X\	Do-
.	.	.	.	4D/	-na	.	.
.	.	8c\	.	.	.	.	.
.	.	4B\	.	4d\	no-	.	.
!	!	!LO:TX:t=P:problem=kreska pseudotaktowa	!	!LO:TX:t=P:problem=kreska pseudotaktowa	!	!LO:TX:t=P:problem=kreska pseudotaktowa	!
.	.	4A/	-bis	4c\	-bis	4a\	-na
2r	.	8G/L	pa-	(2B\	pa-	8.d\	no-
.	.	8A/J	.	.	.	.	.
.	.	.	.	.	.	16d\	-bis
.	.	8B\L	.	.	.	2g\	pa-
.	.	8c\J	.	.	.	.	.
!	!	!LO:TX:t=P:problem=kreska pseudotaktowa	!	!LO:TX:t=P:problem=kreska pseudotaktowa	!	!	!
*	*Xij	*	*	*	*	*	*
4.D/	Do-	2d\	.	2A/)	.	.	.
!	!	!	!	!	!	!LO:TX:t=P:problem=kreska pseudotaktowa	!
!	!	!	!	!	!	!LO:TX:t=P:problem=♯ above	!
.	.	.	.	.	.	4f#X\	.
!LO:TX:t=P:problem=kreska pseudotaktowa	!	!	!	!	!	!	!
8D/	-na	.	.	.	.	.	.
=54-	=54-	=54-	=54-	=54-	=54-	=54-	=54-
4.G\	no-	2d\	-cem	4B\	-ce(m)	4g\	-ce(m)
*	*	*	*	*	*ij	*	*ij
.	.	.	.	8B\	Do-	2g\	Do-
8F\	.	.	.	8A/	-na	.	.
!	!	!LO:TX:t=P:problem=kreska pseudotaktowa	!	!	!	!	!
4E\	.	2r	.	4G/	no-	.	.
!LO:TX:t=P:problem=kreska pseudotaktowa	!	!	!	!	!	!LO:TX:t=P:problem=kreska pseudotaktowa	!
4D/	-bis	.	.	8A/L	.	4f\	-na
!	!	!	!	!LO:TX:t=P:problem=kreska pseudotaktowa	!	!	!
.	.	.	.	8B/J	.	.	.
!	!	!	!	!LO:LB:g=original	!	!	!
4A\	pa-	2rc	.	8c\	-bis	4e\	no-
.	.	.	.	8A/	.	.	.
*custos:A	*	*	*	*	*	*	*
4B-X\	.	.	.	2d\	pa-	4g\	-bis
!LO:LB:g=original	!	!	!	!	!	!	!
!LO:TX:t=P:problem=kreska pseudotaktowa	!	!	!	!	!	!LO:TX:t=P:problem=kreska pseudotaktowa	!
2A\	.	4r	.	.	.	2e\	pa-
!	!	!	!	!LO:TX:t=P:problem=♯ above	!	!	!
.	.	8A/	Do-	4c#X\	.	.	.
!	!	!LO:TX:t=P:problem=kreska pseudotaktowa	!	!	!	!	!
.	.	8A/	-na	.	.	.	.
=55-	=55-	=55-	=55-	=55-	=55-	=55-	=55-
2D/	-cem	4.d\	Do-	2d\	-cem	2f#X\	-cem
.	.	8c\	.	.	.	.	.
!	!	!	!	!LO:TX:t=P:problem=kreska pseudotaktowa	!	!	!
*	*ij	*	*	*	*	*	*Xij
4.G\	Do-	4.B\	.	2rc	.	4.g\	Do-
!	!	!LO:TX:t=P:problem=kreska pseudotaktowa	!	!	!	!LO:TX:t=P:problem=kreska pseudotaktowa	!
8G\	-na	8B\	-na	.	.	8g\	-na
4F#X\	no-	4d\	no-	2r	.	4.a\	no-
4A\	-bis	4c\	.	.	.	.	.
.	.	.	.	.	.	8a\	-bis
*	*	*	*	*	*Xij	*	*
!LO:TX:t=P:problem=kreska pseudotaktowa	!	!LO:TX:t=P:problem=kreska pseudotaktowa	!	!	!	!	!
2E\	pa-	2B\	-bis	8B/	Do-	4a\	pa-
.	.	.	.	8E/	-na	.	.
!	!	!	!	!	!	!LO:TX:t=P:problem=kreska pseudotaktowa	!
!	!	!	!	!LO:TX:t=P:problem=kreska pseudotaktowa	!	!LO:TX:t=P:problem=♯ above	!
.	.	.	.	4.e\	no-	4g#X\	.
=56-	=56-	=56-	=56-	=56-	=56-	=56-	=56-
2AA/	-cem	2A/	pa-	.	.	2a\	-ce(m)
.	.	.	.	8d\	.	.	.
!	!	!	!	!LO:TX:t=P:problem=♯ above	!	!	!
.	.	.	.	4c#X\	.	.	.
!LO:TX:t=P:problem=kreska pseudotaktowa	!	!	!	!LO:TX:t=P:problem=kreska pseudotaktowa	!	!	!
*	*	*	*	*	*	*	*ij
2rBB	.	4.d\	-cem	2d\	-bis	4.f#X\	Do-
!	!	!LO:TX:t=P:problem=kreska pseudotaktowa	!	!	!	!LO:TX:t=P:problem=kreska pseudotaktowa	!
*	*	*	*ij	*	*	*	*
.	.	8d\	no-	.	.	8g\	-na
2r	.	4c#X\	-bis	2.e\	pa-	4a\	no-
.	.	4e\	.	.	.	4g\	-bis
!	!	!	!	!	!	!LO:TX:t=P:problem=kreska pseudotaktowa	!
!	!	!LO:TX:t=P:problem=kreska pseudotaktowa	!	!	!	!LO:TX:t=P:problem=♯ above	!
4r	.	2B\	pa-	.	.	2f#X\	pa-
!	!	!	!	!LO:TX:t=P:problem=kreska pseudotaktowa	!	!	!
!	!	!	!	!LO:TX:t=P:problem=♯ above	!	!	!
*	*Xij	*	*	*	*	*	*
8.BB/	Do-	.	.	4d#X\	.	.	.
!LO:TX:t=P:problem=kreska pseudotaktowa	!	!	!	!	!	!	!
16BB/	-na	.	.	.	.	.	.
=57-	=57-	=57-	=57-	=57-	=57-	=57-	=57-
4.E\	no-	2B\	-cem	2e\	-ce(m)	4g\	-cem
.	.	.	.	.	.	2g\	Do-
8D/	.	.	.	.	.	.	.
*	*	*	*Xij	*	*ij	*	*
4C/	.	4c\	Do-	4E/	Do-	.	.
!	!	!	!	!LO:TX:t=P:problem=kreska pseudotaktowa	!	!	!
!LO:TX:t=P:problem=kreska pseudotaktowa	!	!LO:TX:t=P:problem=kreska pseudotaktowa	!	!	!	!LO:TX:t=P:problem=kreska pseudotaktowa	!
4BB/	-bis	4d\	-na	4G/	-na	4g\	-na
2C/	pa-	4.c\	no-	8A/	no-	4.e\	no-
.	.	.	.	8G/	-bis	.	.
.	.	.	.	2G/	pa-	.	.
.	.	8B\	-bis	.	.	8e\	-bis
!	!	!	!	!	!	!LO:TX:t=P:problem=kreska pseudotaktowa	!
2D/	.	2A\	pa-	.	.	2d\	pa-
.	.	.	.	4F#X/	.	.	.
=58-	=58-	=58-	=58-	=58-	=58-	=58-	=58-
!LO:TX:a:t=R Praept(us) Scripsit A.D.N Supra.\nmppa.	!	!	!	!	!	!LO:TX:a:t=A M D G.\nPraept(us) Scrip(si)t	!
!LO:TX:a:t=A M D G.\nB M V H.	!	!LO:TX:a:t=A M D G.\nR P. Scripta\nM M.	!	!LO:TX:a:t=A M D G. B V M H\nR. Praept(us) p peccatis Scripsit.	!	!LO:TX:t=P:problem=fermata below	!
!	!	!	!	!LO:N:vis=1	!	!	!
0GG/;	-cem.	0B\;	-ce(m).	0G/;	-cem	0d\;<	-cem
*	*	*	*	*	*Xij	*	*Xij
=-	=-	=-	=-	=-	=-	=-	=-
*-	*-	*-	*-	*-	*-	*-	*-
!!!system-decoration: [(s1,s2,s3,s4)]
!!!RDF**kern: > = above
!!!RDF**kern: < = below
!!!EED: Leszek Kubiak
!!!EST: 2021-03-11
!!!ENC: Andrzej Kubiczek
!!!END: 2021-02-25
